!!!OTL: Geistliche Lieder im Jacobston. / b. Andere Art.
!!!ARE: Europa, Mitteleuropa, Deutschland
!!!SCT: A0611B
!!!TXL: @@GMH
!!!YEM: Copyright 1995, estate of Helmut Schaffrath.
**kern	**text
*M4/1	*
*met(c|)	*
*clefC4	*
*k[]	*
*d:	*
!LO:TX:a:t=P:1r, 2r in the source:problem	!
2ryy	.
{2F	Wel-
=1	=1
1F	-cher
1F	das
1G	el-
1G	-lend
=2	=2
1.A	baw-
2G	-en
1A	wil,
2r}	.
{2A	der
=3	=3
1A	mach
1A	ſich
1B-X	auf
1A	vnd
=4	=4
1G	rüſt
1F	ſich
1G	ſchnell,
2r}	.
{2G	wol
=5	=5
1A	auff
1A	die
1F	rech-
1F	-ten
=6	=6
0D	ſtraſ-
1C	-ſen,
1r}	.
=7	=7
{1A	Va-
1A	-ter,
1F	mut-
1F	-ter,
=8	=8
1.G	ehr
2F	vnd
1G	guth,
2r}	.
{2A	ſich
=9	=9
1F	ſelbs
1F	muß
1D	er
1F	ver-
=10	=10
*lig	*
2E	-laſ-
2D	.
1E	.
*Xlig	*
1D/ll}	-ſen.
==	==
!!!GTL: Geistliche Volkslieder
!!!AGN: Romanze, Ballade, Lied, religioeses Lied
!! Dresdner Cod. M. 53
!!!ONB: ESAC (Essen Associative Code) Database: ALTDEU
!!!AMT: simple quadruple
!!!AIN: vox
!!!EED: Helmut Schaffrath
!!!EEV: 1.0
!!!RDF**kern: l = terminal long
!!!URL-scan: https://rosdok.uni-rostock.de/mcrviewer/recordIdentifier/rosdok_ppn738218359/iview2/phys_0794.iview2?x=-1021.1722681204792&y=1890.9740574806929&scale=0.35534665417946304&rotation=0&layout=singlePageLayout&logicalDiv=log_0007
!!!ENC: Anna Maria Matuszewska
!!!EEV: 2024/25/03
*-	*-
